X: 053
T: a Trip to Portsmouth
B: 204 Favourite Country Dances
N: Published by Straight & Skillern, London ca.1775
F: http://imslp.org/wiki/204_Favourite_Country_Dances_(Various) p.27 #53
Z: 2014 John Chambers <jc:trillian.mit.edu>
M: C|
L: 1/8
K: C
% - - - - - - - - - - - - - - - - - - - - - - - - -
G2 |\
c2d2 e2f2 | gfed c2g2 | abag fgfe | dcBA G2g2 |\
abag f2e2 | dcBA G2(gf) | f2g2 g2^f2 | g6 :|
|: g2 |\
abag fgfe | dcBA G2g2 | abag f2e2 | d6 G2 |\
c3d cdef | g3f agfe | dcBd c2B2 | c6 :|
% - - - - - - - - - - - - - - - - - - - - - - - - -
%%begintext align
%% Cast off 2 Cu. cast up again cross over 1 Cu.
%% Right and Left at top
%%endtext

%%sep 1 1 500
%%sep 1 1 500
